packages/icons/src/assets/mariadb.svg

<svg xmlns="http://www.w3.org/2000/svg" width="25" height="24"><g clip-path="url(#a)"><path fill-rule="evenodd" d="M13.498 8.255a3.747 3.747 0 0 1 3.746-3.746h5.243v3.738c0 1.184-.562 2.3-1.498 2.996v2.997c0 1.108-.27 2.187-.787 3.153.51.652.787 1.453.787 2.285v1.303H10.502c-3.715 0-6.742-3.026-6.742-6.741v-1.438a.76.76 0 0 0-.337-.63l-.921-.622a2.22 2.22 0 0 1-.989-1.857V6H3.88c.6 0 1.161.232 1.588.66L6 7.19l.524-.524c.427-.427.997-.66 1.596-.66h2.374V9.7a2.24 2.24 0 0 1-.988 1.858l-.922.622a.73.73 0 0 0-.33.569h2.997a.76.76 0 0 0 .6-.3l1.497-2a.74.74 0 0 0 .15-.449zm6.367 1.94a2.23 2.23 0 0 0 1.124-1.94v-2.27h-3.745a2.254 2.254 0 0 0-2.248 2.247v1.745c0 .502-.157.967-.457 1.356l-1.49 1.993a2.28 2.28 0 0 1-1.798.899H8.202a1.445 1.445 0 0 1-1.445-1.386 2.24 2.24 0 0 1 1.003-1.925l.914-.614a.73.73 0 0 0 .33-.615V7.491h-.877a.77.77 0 0 0-.539.224L6 9.303 4.412 7.715a.74.74 0 0 0-.532-.217h-.876v2.195c0 .247.127.48.33.614l.92.622c.622.42.997 1.116.997 1.873v1.438a5.25 5.25 0 0 0 5.243 5.243h4.495l-1.349-1.798 1.199-.898 2.022 2.696h2.615a2.28 2.28 0 0 0-.712-1.446 2.4 2.4 0 0 0-.374-.292l-.824-.487a3.78 3.78 0 0 1-1.82-3.213v-.554h1.498v.554c0 .786.419 1.52 1.093 1.932l.697.413c.3-.667.457-1.394.457-2.143v-3.835zm-3.37-2.69h1.497v1.499h-1.498z" clip-rule="evenodd"/></g><defs><clipPath id="a"><path d="M.04 0h24v24h-24z"/></clipPath></defs></svg>

<svg width="100%" height="100%" viewBox="0 0 24 24" version="1.1" xmlns="http://www.w3.org/2000/svg" xmlns:xlink="http://www.w3.org/1999/xlink" xml:space="preserve" style="fill-rule:evenodd;clip-rule:evenodd;stroke-linejoin:round;stroke-miterlimit:2;"><g transform="matrix(1,0,0,1,9.00407e-06,-0.745)"><path d="M13.498,8.255C13.499,6.2 15.189,4.51 17.244,4.509L22.487,4.509L22.487,8.247C22.487,9.431 21.925,10.547 20.989,11.243L20.989,14.24C20.989,15.348 20.719,16.427 20.202,17.393C20.712,18.045 20.989,18.846 20.989,19.678L20.989,20.981L10.502,20.981C6.787,20.981 3.76,17.955 3.76,14.24L3.76,12.802C3.76,12.549 3.633,12.313 3.423,12.172L2.502,11.55C1.882,11.137 1.51,10.438 1.513,9.693L1.513,6L3.88,6C4.48,6 5.041,6.232 5.468,6.66L6,7.19L6.524,6.666C6.951,6.239 7.521,6.006 8.12,6.006L10.494,6.006L10.494,9.7C10.494,10.444 10.123,11.142 9.506,11.558L8.584,12.18C8.39,12.306 8.267,12.518 8.254,12.749L11.251,12.749C11.487,12.747 11.708,12.636 11.851,12.449L13.348,10.449C13.446,10.32 13.499,10.162 13.498,10L13.498,8.255ZM19.865,10.195C20.56,9.798 20.99,9.056 20.989,8.255L20.989,5.985L17.244,5.985C16.012,5.988 15,7 14.996,8.232L14.996,9.977C14.996,10.479 14.839,10.944 14.539,11.333L13.049,13.326C12.622,13.888 11.957,14.22 11.251,14.225L8.202,14.225C7.431,14.226 6.788,13.609 6.757,12.839C6.737,12.068 7.117,11.34 7.76,10.914L8.674,10.3C8.881,10.164 9.005,9.932 9.004,9.685L9.004,7.491L8.127,7.491C7.925,7.492 7.731,7.573 7.588,7.715L6,9.303L4.412,7.715C4.271,7.574 4.079,7.496 3.88,7.498L3.004,7.498L3.004,9.693C3.004,9.94 3.131,10.173 3.334,10.307L4.254,10.929C4.876,11.349 5.251,12.045 5.251,12.802L5.251,14.24C5.255,17.115 7.619,19.479 10.494,19.483L14.989,19.483L13.64,17.685L14.839,16.787L16.861,19.483L19.476,19.483C19.423,18.931 19.169,18.416 18.764,18.037C18.649,17.928 18.524,17.83 18.39,17.745L17.566,17.258C16.443,16.577 15.753,15.358 15.746,14.045L15.746,13.491L17.244,13.491L17.244,14.045C17.244,14.831 17.663,15.565 18.337,15.977L19.034,16.39C19.334,15.723 19.491,14.996 19.491,14.247L19.491,10.412L19.865,10.195ZM16.495,7.505L17.992,7.505L17.992,9.004L16.494,9.004L16.495,7.505Z"/></g></svg>
